_includes/icons/ios-markdown.svg

<svg fill="#666" height="50" viewBox="0 0 50 50" width="50" xmlns="http://www.w3.org/2000/svg"><path d="m4 10c-2.199219 0-4 1.800781-4 4v24c0 2.199219 1.800781 4 4 4h42c2.199219 0 4-1.800781 4-4v-24c0-2.199219-1.800781-4-4-4zm0 2h42c1.117188 0 2 .882813 2 2v24c0 1.117188-.882812 2-2 2h-42c-1.117187 0-2-.882812-2-2v-24c0-1.117187.882813-2 2-2zm4 6v16h4v-10.65625l5 6.65625 5-6.65625v10.65625h4v-16h-4l-5 6.71875-5-6.71875zm27 0v8h-5l7 8 7-8h-5v-8z"/></svg>

<svg xmlns="http://www.w3.org/2000/svg" viewBox="0 0 50 50" width="50" height="50" fill="#666"><path d="M 4 10 C 1.800781 10 0 11.800781 0 14 L 0 38 C 0 40.199219 1.800781 42 4 42 L 46 42 C 48.199219 42 50 40.199219 50 38 L 50 14 C 50 11.800781 48.199219 10 46 10 Z M 4 12 L 46 12 C 47.117188 12 48 12.882813 48 14 L 48 38 C 48 39.117188 47.117188 40 46 40 L 4 40 C 2.882813 40 2 39.117188 2 38 L 2 14 C 2 12.882813 2.882813 12 4 12 Z M 8 18 L 8 34 L 12 34 L 12 23.34375 L 17 30 L 22 23.34375 L 22 34 L 26 34 L 26 18 L 22 18 L 17 24.71875 L 12 18 Z M 35 18 L 35 26 L 30 26 L 37 34 L 44 26 L 39 26 L 39 18 Z"/></svg>
